src/scalable/places/folder-notes.svg

<svg xmlns="http://www.w3.org/2000/svg" xmlns:xlink="http://www.w3.org/1999/xlink" width="64" height="64"><defs><linearGradient id="a"><stop offset="0"/><stop offset="1" stop-opacity="0"/></linearGradient><linearGradient xlink:href="#a" id="b" x1="31" x2="31" y1="1005.4" y2="1003.4" gradientTransform="matrix(.92593 0 0 1 2.37 -988.4)" gradientUnits="userSpaceOnUse"/></defs><path fill="#d0a15c" d="M13 8c-1.108 0-2 .892-2 2H9c-.99 0-2 .892-2 2v6c0 1.108 1.01 2 2 2h46c.99 0 2-.892 2-2v-6c0-1.108-1.01-2-2-2H31c0-1.108-.892-2-2-2z"/><rect width="46" height="9" x="9" y="12" opacity=".06" rx="2" ry="2"/><rect width="44" height="7" x="10" y="13" fill="#fff" rx="1" ry="1"/><rect width="56" height="39" x="4" y="17" fill="#d0a15c" rx="2" ry="2"/><rect width="50" height="2" x="7" y="15" fill="url(#b)" opacity=".1" ry="0"/><rect width="56" height="38" x="4" y="17" fill="#f4be70" rx="2" ry="2"/><rect width="50" height="5" x="7" y="56" fill="url(#d)" opacity=".1" ry="0"/><path fill="#fff" d="M6 17c-1.108 0-2 .892-2 2v1c0-1.108.892-2 2-2h52c1.108 0 2 .892 2 2v-1c0-1.108-.892-2-2-2zm7-9c-1.108 0-2 .892-2 2H9c-.99 0-2 .892-2 2v1c0-1.108 1.01-2 2-2h2c0-1.108.892-2 2-2h16c1.108 0 2 .892 2 2h24c.99 0 2 .892 2 2v-1c0-1.108-1.01-2-2-2H31c0-1.108-.892-2-2-2z" opacity=".15"/><path d="M22 26c-.554 0-1 .446-1 1v20c0 .554.446 1 1 1h18c.554 0 1-.446 1-1v-1h1c.554 0 1-.446 1-1v-4a1 1 0 0 0-.152-.5A1 1 0 0 0 43 40v-4a1 1 0 0 0-.152-.5A1 1 0 0 0 43 35v-4c0-.554-.446-1-1-1h-1v-3c0-.554-.446-1-1-1zm0 1h18v20H22zm1 2v1h7v-1zm9 0v1h7v-1zm9 2h1v4h-1zm-18 1v1h7v-1zm9 0v1h7v-1zm-9 3v1h7v-1zm9 0v1h7v-1zm9 1h1v4h-1zm-18 2v1h7v-1zm9 0v1h7v-1zm-9 3v1h7v-1zm9 0v1h7v-1zm9 0h1v4h-1zm-18 3v1h7v-1zm9 0v1h7v-1z" class="ColorScheme-Text" style="fill:#fff"/></svg>

<?xml version="1.0" encoding="UTF-8"?>
<svg xmlns="http://www.w3.org/2000/svg" viewBox="0 0 64 64">
 <defs>
  <linearGradient id="a">
   <stop offset="0"/>
   <stop stop-opacity="0" offset="1"/>
  </linearGradient>
  <linearGradient id="b" x1="31" x2="31" y1="1005.4" y2="1003.4" gradientTransform="matrix(.92593 0 0 1 2.37 -988.4)" gradientUnits="userSpaceOnUse" xlink:href="#a"/>
  <radialGradient id="d" cx="32" cy="1021.9" r="25" gradientTransform="matrix(-1 0 0 -.08 64 137.7)" gradientUnits="userSpaceOnUse" xlink:href="#a"/>
 </defs>
 <path d="M13 8c-1.108 0-2 .892-2 2H9c-.99 0-2 .892-2 2v6c0 1.108 1.01 2 2 2h46c.99 0 2-.892 2-2v-6c0-1.108-1.01-2-2-2H31c0-1.108-.892-2-2-2z" fill="#d0a15c"/>
 <rect x="9" y="12" width="46" height="9" rx="2" ry="2" opacity=".06"/>
 <rect x="10" y="13" width="44" height="7" rx="1" ry="1" fill="#fff"/>
 <rect x="4" y="17" width="56" height="39" rx="2" ry="2" fill="#d0a15c"/>
 <rect x="7" y="15" width="50" height="2" ry="0" fill="url(#b)" opacity=".1"/>
 <rect x="4" y="17" width="56" height="38" rx="2" ry="2" fill="#f4be70"/>
 <rect x="7" y="56" width="50" height="5" ry="0" fill="url(#d)" opacity=".1"/>
 <path d="M6 17c-1.108 0-2 .892-2 2v1c0-1.108.892-2 2-2h52c1.108 0 2 .892 2 2v-1c0-1.108-.892-2-2-2zM13 8c-1.108 0-2 .892-2 2H9c-.99 0-2 .892-2 2v1c0-1.108 1.01-2 2-2h2c0-1.108.892-2 2-2h16c1.108 0 2 .892 2 2h24c.99 0 2 .892 2 2v-1c0-1.108-1.01-2-2-2H31c0-1.108-.892-2-2-2z" fill="#fff" opacity=".15"/>
 <path style="fill:#ffffff" d="M 22 26 C 21.446 26 21 26.446 21 27 L 21 47 C 21 47.554 21.446 48 22 48 L 40 48 C 40.554 48 41 47.554 41 47 L 41 46 L 42 46 C 42.554 46 43 45.554 43 45 L 43 41 C 43 40.814 42.935656 40.649 42.847656 40.5 C 42.935656 40.351 43 40.186 43 40 L 43 36 C 43 35.814 42.935656 35.649 42.847656 35.5 C 42.935656 35.351 43 35.186 43 35 L 43 31 C 43 30.446 42.554 30 42 30 L 41 30 L 41 27 C 41 26.446 40.554 26 40 26 L 22 26 z M 22 27 L 40 27 L 40 47 L 22 47 L 22 27 z M 23 29 L 23 30 L 30 30 L 30 29 L 23 29 z M 32 29 L 32 30 L 39 30 L 39 29 L 32 29 z M 41 31 L 42 31 L 42 35 L 41 35 L 41 31 z M 23 32 L 23 33 L 30 33 L 30 32 L 23 32 z M 32 32 L 32 33 L 39 33 L 39 32 L 32 32 z M 23 35 L 23 36 L 30 36 L 30 35 L 23 35 z M 32 35 L 32 36 L 39 36 L 39 35 L 32 35 z M 41 36 L 42 36 L 42 40 L 41 40 L 41 36 z M 23 38 L 23 39 L 30 39 L 30 38 L 23 38 z M 32 38 L 32 39 L 39 39 L 39 38 L 32 38 z M 23 41 L 23 42 L 30 42 L 30 41 L 23 41 z M 32 41 L 32 42 L 39 42 L 39 41 L 32 41 z M 41 41 L 42 41 L 42 45 L 41 45 L 41 41 z M 23 44 L 23 45 L 30 45 L 30 44 L 23 44 z M 32 44 L 32 45 L 39 45 L 39 44 L 32 44 z " class="ColorScheme-Text"/>
</svg>
